X:1
T: Andy's Jig
N:
C:Dawson Kirwood
S:Fiddle Music of the Ottawa Valley
A:
O:
R:
M:6/8
K:C
I:speed 180
%W:
% voice 1 (1 lines, 45 notes)
K:C
M:6/8
L:1/16
D2 |E2 D2 E2 C2 E2 G2 F2 G2 F2 D2 d2 c2 C2 d2 B2 G2 A2 B2 c2 B2 A2 G4 F2 |E2 D2 E2 C2 E2 G2 F2 D2 F2 D2 d2 c2 B2 d2 B2 G2 A2 B2 c6 c4 D2 |
%W:
% voice 1 (1 lines, 44 notes)
E2 D2 E2 C2 E2 G2 F2 G2 F2 D2 d2 c2 C2 d2 B2 G2 A2 B2 c2 B2 A2 G4 F2 |E2 D2 E2 C2 E2 G2 F2 D2 F2 D2 d2 c2 B2 d2 B2 G2 A2 B2 c6 c4 e2 |
%W:
% voice 1 (1 lines, 40 notes)
g2 ^f2 a2 g4 e2 c2 B2 A2 G4 G2 c2 B2 c2 A2 B2 c2 e2 d2 ^c2 d4 e2 |g2 ^f2 a2 g4 e2 c2 B2 A2 G4 A2 B2 d2 B2 G2 A2 B2 c6 c4 e2 |
%W:
% voice 1 (1 lines, 39 notes)
g2 ^f2 a2 g4 e2 c2 B2 A2 G4 G2 c2 B2 c2 A2 B2 c2 e2 d2 ^c2 d4 e2 |g2 ^f2 a2 g4 e2 c2 B2 A2 G4 A2 B2 d2 B2 G2 A2 B2 c6 c4 ||
